src/img/sass hover.svg

<?xml version="1.0" encoding="utf-8"?>
<!-- Generator: Adobe Illustrator 23.0.1, SVG Export Plug-In . SVG Version: 6.00 Build 0)  -->
<svg version="1.1" id="Слой_1" xmlns="http://www.w3.org/2000/svg" xmlns:xlink="http://www.w3.org/1999/xlink" x="0px" y="0px"
	 width="90px" height="90px" viewBox="0 0 90 90" style="enable-background:new 0 0 90 90;" xml:space="preserve">
<style type="text/css">
	.st0{fill:#FF5555;}
	.st1{fill:none;}
</style>
<path class="st0" d="M2.2,74.6c0,0.1,1,4.8,1,4.8l8.9,1.1l-0.7,6.6l8.9,0.8l-2.1-7.6l7.4,0.1l3.4-1.8c0,0,0.3-4.6-0.2-4.4
	S2.2,74.6,2.2,74.6z"/>
<path class="st0" d="M37.7,81.9c0,0.4,0,3.9,0,3.9l2.5,1.7l6.3,0.5l4.8-1.1l1.3-5L37.7,81.9z"/>
<polygon class="st0" points="62.8,76 60.8,82.9 62.5,87.1 71.4,88.1 85.4,87.6 88,85.7 87.1,80.1 86,76 "/>
<path d="M38.7,53.8V41.1h-2v12.8c0,1.1-0.8,1.9-1.9,1.9H18.5c-2.3,0-3.9,1.7-3.9,3.9v1.9H5.3c-2.3,0-3.9,1.7-3.9,3.9v11.8
	c0,2.3,1.7,3.9,3.9,3.9h6.1l-1.1,5.3H7.3v2H24v-2h-3.1l-1.1-5.3h6.1c2.3,0,3.9-1.7,3.9-3.9V65.6c0-2.3-1.7-3.9-3.9-3.9h-9.3v-1.9
	c0-1.1,0.8-1.9,1.9-1.9h16.2C37,57.8,38.7,56.1,38.7,53.8z M12.4,86.6l1.1-5.3h4.3l1.1,5.3H12.4z M27.8,77.3c0,1.1-0.8,1.9-1.9,1.9
	H5.3c-1.1,0-1.9-0.8-1.9-1.9v-1.9h24.4V77.3z M25.9,63.7c1.1,0,1.9,0.8,1.9,1.9v7.8H3.4v-7.8c0-1.1,0.8-1.9,1.9-1.9H25.9z"/>
<path d="M64.1,88.6h20.6c2.3,0,3.9-1.7,3.9-3.9v-2.9l-1.5-6.1V65.6c0-2.3-1.7-3.9-3.9-3.9h-7.8v-1.9c0-2.3-1.7-3.9-3.9-3.9H55.3
	c-1.1,0-1.9-0.8-1.9-1.9V41.1h-2v12.8c0,2.3,1.7,3.9,3.9,3.9h16.2c1.1,0,1.9,0.8,1.9,1.9v1.9h-7.8c-2.3,0-3.9,1.7-3.9,3.9l0,10.3
	l-1.5,5.7v3.2C60.2,86.9,61.9,88.6,64.1,88.6z M63.6,65.6c0-1.1,0.8-1.9,1.9-1.9h17.6c1.1,0,1.9,0.8,1.9,1.9v9.3H63.6V65.6z
	 M63.5,76.9h21.9l1,3.9H62.5L63.5,76.9z M62.2,82.8h24.4v1.9c0,1.1-0.8,1.9-1.9,1.9H64.1c-1.1,0-1.9-0.8-1.9-1.9V82.8z"/>
<path d="M36.6,65.6v19.1c0,2.3,1.7,3.9,3.9,3.9h8.8c2.3,0,3.9-1.7,3.9-3.9V65.6c0-2.3-1.7-3.9-3.9-3.9H46V41.1h-2v20.6h-3.4
	C38.3,61.6,36.6,63.3,36.6,65.6z M51.3,84.7c0,1.1-0.8,1.9-1.9,1.9h-8.8c-1.1,0-1.9-0.8-1.9-1.9v-1.9h12.7V84.7z M49.4,63.7
	c1.1,0,1.9,0.8,1.9,1.9v15.2H38.7V65.6c0-1.1,0.8-1.9,1.9-1.9H49.4z"/>
<path d="M82.8,30.3c0-9.5-7.7-17.2-17.2-17.2H65l-0.1-0.2C58.5,2,44.4-1.9,33.5,4.4c-3.6,2.1-6.6,5.1-8.5,8.5l-0.1,0.2h-0.6
	c-9.5,0-17.2,7.7-17.2,17.2s7.7,17.2,17.2,17.2h8.4v-2h-8.4c-8.4,0-15.2-6.8-15.2-15.2c0-7.9,6-14.4,13.9-15.2l0.7-0.1l-0.3,0.7
	c-1,2.7-1.5,5.5-1.6,8.2h2c0.2-11.4,9.6-20.6,21-20.6c11.4,0,20.8,9.2,21,20.6h2c-0.1-2.8-0.7-5.6-1.7-8.2L66,15.1l0.8,0.1
	c8.4,0.8,14.5,8.1,13.8,16.4c-0.6,7.9-7.1,13.9-15,13.9h-8.4v2h8.4C75,47.5,82.8,39.8,82.8,30.3z"/>
<rect class="st1" width="90" height="90"/>
</svg>

<svg width="90" height="90" viewBox="0 0 90 90" fill="none" xmlns="http://www.w3.org/2000/svg">
<path d="M2.20001 74.6C2.20001 74.7 3.20001 79.4 3.20001 79.4L12.1 80.5L11.4 87.1L20.3 87.9L18.2 80.3L25.6 80.4L29 78.6C29 78.6 29.3 74 28.8 74.2C28.3 74.4 2.20001 74.6 2.20001 74.6Z" fill="#004976"/>
<path d="M37.7 81.9C37.7 82.3 37.7 85.8 37.7 85.8L40.2 87.5L46.5 88L51.3 86.9L52.6 81.9H37.7Z" fill="#004976"/>
<path d="M62.8 76L60.8 82.9L62.5 87.1L71.4 88.1L85.4 87.6L88 85.7L87.1 80.1L86 76H62.8Z" fill="#004976"/>
<path d="M38.7 53.8V41.1H36.7V53.9C36.7 55 35.9 55.8 34.8 55.8H18.5C16.2 55.8 14.6 57.5 14.6 59.7V61.6H5.30002C3.00002 61.6 1.40002 63.3 1.40002 65.5V77.3C1.40002 79.6 3.10002 81.2 5.30002 81.2H11.4L10.3 86.5H7.30002V88.5H24V86.5H20.9L19.8 81.2H25.9C28.2 81.2 29.8 79.5 29.8 77.3V65.6C29.8 63.3 28.1 61.7 25.9 61.7H16.6V59.8C16.6 58.7 17.4 57.9 18.5 57.9H34.7C37 57.8 38.7 56.1 38.7 53.8ZM12.4 86.6L13.5 81.3H17.8L18.9 86.6H12.4ZM27.8 77.3C27.8 78.4 27 79.2 25.9 79.2H5.30002C4.20002 79.2 3.40002 78.4 3.40002 77.3V75.4H27.8V77.3V77.3ZM25.9 63.7C27 63.7 27.8 64.5 27.8 65.6V73.4H3.40002V65.6C3.40002 64.5 4.20002 63.7 5.30002 63.7H25.9V63.7Z" fill="black"/>
<path d="M64.1 88.6H84.7C87 88.6 88.6 86.9 88.6 84.7V81.8L87.1 75.7V65.6C87.1 63.3 85.4 61.7 83.2 61.7H75.4V59.8C75.4 57.5 73.7 55.9 71.5 55.9H55.3C54.2 55.9 53.4 55.1 53.4 54V41.1H51.4V53.9C51.4 56.2 53.1 57.8 55.3 57.8H71.5C72.6 57.8 73.4 58.6 73.4 59.7V61.6H65.6C63.3 61.6 61.7 63.3 61.7 65.5V75.8L60.2 81.5V84.7C60.2 86.9 61.9 88.6 64.1 88.6ZM63.6 65.6C63.6 64.5 64.4 63.7 65.5 63.7H83.1C84.2 63.7 85 64.5 85 65.6V74.9H63.6V65.6ZM63.5 76.9H85.4L86.4 80.8H62.5L63.5 76.9ZM62.2 82.8H86.6V84.7C86.6 85.8 85.8 86.6 84.7 86.6H64.1C63 86.6 62.2 85.8 62.2 84.7V82.8V82.8Z" fill="black"/>
<path d="M36.6 65.6V84.7C36.6 87 38.3 88.6 40.5 88.6H49.3C51.6 88.6 53.2 86.9 53.2 84.7V65.6C53.2 63.3 51.5 61.7 49.3 61.7H46V41.1H44V61.7H40.6C38.3 61.6 36.6 63.3 36.6 65.6ZM51.3 84.7C51.3 85.8 50.5 86.6 49.4 86.6H40.6C39.5 86.6 38.7 85.8 38.7 84.7V82.8H51.4V84.7H51.3ZM49.4 63.7C50.5 63.7 51.3 64.5 51.3 65.6V80.8H38.7V65.6C38.7 64.5 39.5 63.7 40.6 63.7H49.4V63.7Z" fill="black"/>
<path d="M82.8 30.3C82.8 20.8 75.1 13.1 65.6 13.1H65L64.9 12.9C58.5 1.99999 44.4 -1.90001 33.5 4.39999C29.9 6.49999 26.9 9.49999 25 12.9L24.9 13.1H24.3C14.8 13.1 7.09998 20.8 7.09998 30.3C7.09998 39.8 14.8 47.5 24.3 47.5H32.7V45.5H24.3C15.9 45.5 9.09998 38.7 9.09998 30.3C9.09998 22.4 15.1 15.9 23 15.1L23.7 15L23.4 15.7C22.4 18.4 21.9 21.2 21.8 23.9H23.8C24 12.5 33.4 3.29999 44.8 3.29999C56.2 3.29999 65.6 12.5 65.8 23.9H67.8C67.7 21.1 67.1 18.3 66.1 15.7L66 15.1L66.8 15.2C75.2 16 81.3 23.3 80.6 31.6C80 39.5 73.5 45.5 65.6 45.5H57.2V47.5H65.6C75 47.5 82.8 39.8 82.8 30.3Z" fill="black"/>
</svg>
